!!!OTL@@DE: Die Tabakspfeife
!!!COM: Pilz, Carl Philipp Emanuel
!!!ODT: 1794
!!!OMD: Allegretto
!!!LYR: Pfeffel, Gottlib Conrad
!!!LDT: 1782
!!!ONB: Der Edelmann und der Invalide
!!!OCL: Erk, Ludwig
!!!GCO: Deutscher Liederschatz, Band 1
**kern	**kern	**kern
*staff3	*staff2	*staff1
*Ipiano	*Ipiano	*Ivox
*clefF4	*clefG2	*clefG2
*k[f#c#]	*k[f#c#]	*k[f#c#]
*D:	*D:	*D:
*met(C)	*met(C)	*met(C)
*M4/4	*M4/4	*M4/4
*MM118	*MM118	*MM118
4A\	4a/	4a/
=1	=1	=1
4D\ 4A\	4d/ 4f#/	4.dd\
4D\ 4A\	4d/ 4f#/	.
.	.	8f#/
4AA\ 4A\	8e/L	8a/
.	8g/J	8g/
4AA\	8f#/L	8f#/
.	8e/J	8e/
=2	=2	=2
(8G/L	(8c#/ 8e/L	(8e/L
8F#/J)	8d/J)	8d/J)
4D\ 4F#\	4A/ 4d/	4d/
4DD/	4r	4r
4A/	4d/ 4f#/	4f#/
=3	=3	=3
4.A/	4.c#/ 4.e/	4.e/
8A/	8d/ 8f#/	8f#/
4A/	8f#/ 8a/L	8a/L
.	8e/ 8g/J	8g/J
4AA/	8d/ 8f#/L	8f#/L
.	8c#/ 8e/J	8e/J
=4	=4	=4
4D\	4d/ 4f#/	4f#/
4AA/	4r	4r
4DD/	4r	4r
4r	4d/	4d/
=5	=5	=5
4GG/	4.d/ 4.g/ 4.b/	4.b\
4G\	.	.
.	8a\ 8cc#\	8cc#\
4G\	8b\ 8dd\L	8dd\
.	8a\ 8cc#\	8cc#\
4GG/	8b\ 8dd\	8dd\
.	8g\ 8b\J	8b\
=6	=6	=6
4D\	(8g/ 8b/L	(8b/L
.	8f#/) 8a/J	8a/J)
4D\	4f#/ 4a/	4a/
4DD/	4r	4r
4r	(8e/ 8g/L	8g/L
.	8d/) 8f#/J	8f#/J
=7	=7	=7
4GG/	4.B/ 4.d/ 4.e/	4.e/
4GG/	.	.
.	8d/ 8e/ 8b/	8b/
4AA/	4d/ 4f#/ 4a/	4a/
4r	4G/ 4A/ 4c#/	4c#/
=8	=8	=8
4D\	4F#/ 4A/ 4d/	4d/
4AA/	4r	4r
4DD/	4r	4r
==	==	==
*-	*-	*-
!!!ENC: Craig Stuart Sapp
!!!END: 2004/06/02/
!!!EFL: 050/651
